!!!SOCIAL_FUNCTION:	cochiti
!!!PDT:	1957
!!!OTL: No_64_Corn_Dance_Song.krn
!!!LING_GROUP: Keresan
!!!LANG: Tone
!!!REG: Southwest
**kern
*staff1
=1-
*clefF4
*k[f#c#g#d#a#]
*M2/4
4.r
16G#\LL
16F#\JJ
=2
4D#\
4F#\
=3
*M3/4
4F#\
[4F#\
8F#\L]
16G#\L
16F#\JJ
=4
*M2/4
4D#\
4F#\
=5
4F#\
4r
=6
8F#\L
8F#\J
8F#\L
8G#\J
=7!|:
4B\
8B\L
8G#\J
=8
2B\
=9
8F#\
8r
4r
=10
4c#\
4B\
=11
16G#\LK
8.G#\J
16F#\LK
8.E\J
=12
4G#\
8E\L
8E\J
=13
*M5/8
4F#\
8F#\
8r
8F#\
=14
4c#\
8B\L
8G#\
8B\J
=15
*M2/4
16B\LK
8.G#\J
16G#\LK
8.E\J
=16
4F#\
4r
=17
*M3/4
2G#\
4B\
=18
2G#\
4B\
=19
*M2/4
2G#\
=20
8F#\L
8E\J
4G#\
=21
*M3/4
2F#\
8r
8F#\
=22
*M2/4
4E\
4F#\
=23
*M3/4
2F#\
8r
8F#\
=24
*M2/4
4E\
4F#\
=25
*M3/4
2F#\
8r
8F#\
=26
*M2/4
4F#\
8F#\L
8G#\J
=27:|!
*M2/4
4F#\
4r
=28
=
4c#\
16c#\LL
16B\J
8B\J
=29
*M3/4
4c#\
16c#\LL
16B\J
8B\J
8.r
16e\
=30
8.e\L
16e\Jk
8e\L
8e\J
16e\LL
16B\J
8G#\J
=31
2B\
8F#\
8r
=32
*M2/4
8B\L
8B\J
8G#\L
16F#\Jk
16r
=33
8B\L
8B\J
8G#\L
16E\Jk
16r
=34
*M5/8
8.B\L
16c#\K
8B\
16G#\L
16E\J
8G#\J
=35
*M3/4
4F#\
16F#\LL
16F#\J
8G#\J
16F#\
16r
8F#\
=36:|!
*M3/4
8F#\
8r
8F#\L
8G#\J
16F#\
16r
8F#\
=37
*M2/4
4c#\
16c#\LL
16B\J
8B\J
=38
*M3/4
4c#\
16c#\LL
16B\J
8B\J
8.r
16B\
=39
*M2/4
4e\
16B\LL
16B\J
8G#\J
=40
*M3/4
2B\
8F#\
8r
=41
*M2/4
4B\
16c#\LL
16B\J
8G#\J
=42
*M3/4
4B\
16c#\LL
16B\J
8G#\J
8.r
16G#\
=43
*M2/4
4c#\
4B\
=44
4G#\
4G#\
=45
4F#\
4r
=46
4F#\
4G#\
=47
4F#\
8.r
16F#\
=48
4e\
16e\LK
8.B\J
=49
!!pagebreak:default
16c#\LK
8.B\J
8G#\
16r
16G#\
=50
4c#\
4c#\
=51
16B\LK
8.E\J
4G#\
=52
4F#\
4r
=53
4F#\
4F#\
=54
8G#\L
8F#\J
8F#/L
8C#/J
=55
*M3/4
4F#\
4F#\
4C#/
=56
*M2/4
8F#/L
8C#/J
8E/L
8C#/J
=57
4C#/
4C#/
=58
2BB/
==
*-
